src/img/header/viber.svg

<svg width="16" height="16" viewBox="0 0 16 16" fill="none" xmlns="http://www.w3.org/2000/svg">
<path d="M14 0H2C0.895431 0 0 0.895431 0 2V14C0 15.1046 0.895431 16 2 16H14C15.1046 16 16 15.1046 16 14V2C16 0.895431 15.1046 0 14 0Z" fill="#7D3DAF"/>
<path d="M13.0605 5.15751L13.0573 5.14487C12.8017 4.11163 11.6495 3.0029 10.5913 2.77224L10.5794 2.76978C8.86782 2.44328 7.13241 2.44328 5.42122 2.76978L5.40893 2.77224C4.35111 3.0029 3.19886 4.11163 2.94292 5.14487L2.94011 5.15751C2.62413 6.60046 2.62413 8.06378 2.94011 9.50674L2.94292 9.51938C3.18794 10.5085 4.25439 11.5663 5.27306 11.8572V13.0106C5.27306 13.428 5.78178 13.6331 6.07108 13.3318L7.23966 12.1171C7.49311 12.1313 7.7467 12.1392 8.00029 12.1392C8.86185 12.1392 9.72376 12.0578 10.5794 11.8945L10.5913 11.892C11.6495 11.6614 12.8017 10.5527 13.0573 9.51941L13.0605 9.50678C13.3764 8.06378 13.3764 6.60046 13.0605 5.15751ZM12.1357 9.29749C11.9651 9.97158 11.0902 10.8096 10.395 10.9644C9.48499 11.1375 8.56774 11.2115 7.65141 11.1861C7.63319 11.1856 7.61567 11.1926 7.60296 11.2057C7.47292 11.3392 6.74972 12.0816 6.74972 12.0816L5.84217 13.013C5.77582 13.0822 5.65926 13.0351 5.65926 12.9396V11.029C5.65926 10.9974 5.63672 10.9706 5.60571 10.9645C5.60554 10.9645 5.60536 10.9644 5.60519 10.9644C4.91004 10.8096 4.03549 9.97154 3.86451 9.29746C3.58013 7.99318 3.58013 6.671 3.86451 5.36672C4.03549 4.69264 4.91004 3.8546 5.60519 3.69977C7.19455 3.39749 8.80602 3.39749 10.395 3.69977C11.0905 3.8546 11.9651 4.69264 12.1357 5.36672C12.4204 6.67103 12.4204 7.99322 12.1357 9.29749Z" fill="white"/>
<path d="M9.51227 10.1793C9.4054 10.1468 9.30355 10.125 9.20896 10.0858C8.22887 9.67917 7.32687 9.15458 6.61237 8.35042C6.20606 7.89313 5.88805 7.37686 5.61923 6.8305C5.49175 6.5714 5.38431 6.30215 5.27481 6.03466C5.17496 5.79073 5.32203 5.53872 5.4769 5.35493C5.62221 5.18244 5.8092 5.05043 6.0117 4.95314C6.16976 4.8772 6.32568 4.92099 6.44112 5.05496C6.69067 5.3446 6.91989 5.64906 7.10551 5.98481C7.21965 6.19132 7.18833 6.44375 6.98147 6.58428C6.93119 6.61844 6.88538 6.65854 6.83854 6.69712C6.79747 6.73093 6.75881 6.76509 6.73065 6.81087C6.67919 6.89464 6.67673 6.99344 6.70987 7.08451C6.96497 7.78556 7.39494 8.33069 8.10055 8.6243C8.21346 8.67127 8.32686 8.72597 8.45694 8.71081C8.67479 8.68535 8.74532 8.4464 8.89797 8.32156C9.04718 8.19956 9.23786 8.19794 9.39858 8.29965C9.55935 8.40139 9.71519 8.51062 9.87009 8.621C10.0221 8.72934 10.1735 8.83533 10.3138 8.95885C10.4486 9.07762 10.4951 9.23343 10.4192 9.39461C10.2801 9.68981 10.0778 9.93539 9.78601 10.0921C9.70361 10.1363 9.6052 10.1507 9.51227 10.1793C9.4054 10.1468 9.6052 10.1507 9.51227 10.1793Z" fill="white"/>
<path d="M8.00261 4.61577C9.2846 4.65168 10.3375 5.50247 10.5632 6.76988C10.6016 6.98583 10.6153 7.20663 10.6324 7.42581C10.6396 7.51801 10.5874 7.6056 10.4879 7.6068C10.3851 7.60803 10.3389 7.52205 10.3322 7.42989C10.319 7.24746 10.3099 7.06423 10.2847 6.88332C10.152 5.92833 9.39052 5.13825 8.43996 4.96871C8.29693 4.94319 8.15052 4.93648 8.00563 4.92128C7.91403 4.91166 7.79407 4.90611 7.77377 4.79226C7.75675 4.6968 7.83732 4.62079 7.92822 4.61591C7.95293 4.61454 7.97779 4.61566 8.00261 4.61577C9.2846 4.65168 7.97779 4.61566 8.00261 4.61577Z" fill="white"/>
<path d="M9.95072 7.14123C9.94861 7.15724 9.94749 7.19487 9.93812 7.23033C9.9041 7.35904 9.70897 7.37515 9.66403 7.24525C9.65072 7.2067 9.64872 7.16285 9.64865 7.12136C9.64819 6.84983 9.58918 6.57858 9.45225 6.34233C9.31151 6.09952 9.09647 5.8954 8.84425 5.77189C8.69174 5.69722 8.5268 5.6508 8.35965 5.62314C8.28659 5.61106 8.21276 5.60372 8.13935 5.5935C8.05038 5.58115 8.00288 5.52445 8.00709 5.43678C8.01103 5.35463 8.07106 5.29554 8.16059 5.30059C8.45479 5.31731 8.73896 5.38089 9.00052 5.51939C9.53241 5.80107 9.83623 6.24568 9.92492 6.83936C9.92892 6.86626 9.93538 6.8929 9.93741 6.9199C9.94244 6.98657 9.94559 7.05332 9.95072 7.14123C9.94861 7.15724 9.94559 7.05332 9.95072 7.14123Z" fill="white"/>
<path d="M9.15392 7.11051C9.04666 7.11245 8.98926 7.05308 8.9782 6.95474C8.97051 6.88617 8.96444 6.81669 8.94808 6.74999C8.91585 6.61861 8.84602 6.49685 8.73549 6.41635C8.68332 6.37833 8.6242 6.35063 8.56227 6.33276C8.48359 6.31004 8.40189 6.31629 8.32339 6.29705C8.23815 6.27616 8.191 6.20714 8.20441 6.12716C8.21659 6.05438 8.2874 5.99757 8.36692 6.00333C8.86396 6.03921 9.21918 6.29617 9.26988 6.88129C9.27346 6.92258 9.27768 6.96622 9.26851 7.00572C9.25282 7.07333 9.20275 7.10721 9.15392 7.11051C9.04666 7.11245 9.20275 7.10721 9.15392 7.11051Z" fill="white"/>
</svg>

<svg width="16" height="16" fill="none" xmlns="http://www.w3.org/2000/svg"><path d="M14 0H2a2 2 0 00-2 2v12a2 2 0 002 2h12a2 2 0 002-2V2a2 2 0 00-2-2z" fill="#7D3DAF"/><path d="M13.06 5.158l-.003-.013c-.255-1.033-1.408-2.142-2.466-2.373l-.012-.002a13.704 13.704 0 00-5.158 0l-.012.002c-1.058.23-2.21 1.34-2.466 2.373l-.003.013a10.096 10.096 0 000 4.349l.003.012c.245.99 1.311 2.047 2.33 2.338v1.154c0 .417.509.622.798.32l1.169-1.214a13.597 13.597 0 003.34-.223l.011-.002c1.059-.23 2.21-1.34 2.466-2.373l.003-.012a10.098 10.098 0 000-4.35zm-.924 4.14c-.17.674-1.046 1.512-1.741 1.666-.91.173-1.827.247-2.744.222a.065.065 0 00-.048.02l-.853.876-.908.931a.106.106 0 01-.183-.073v-1.911a.066.066 0 00-.053-.065c-.696-.154-1.57-.992-1.741-1.667a9.162 9.162 0 010-3.93c.17-.674 1.045-1.512 1.74-1.667a12.734 12.734 0 014.79 0c.696.155 1.57.993 1.74 1.667a9.152 9.152 0 010 3.93z" fill="#fff"/><path d="M9.512 10.18c-.107-.033-.208-.055-.303-.094-.98-.407-1.882-.931-2.597-1.736a6.738 6.738 0 01-.993-1.52c-.127-.259-.235-.528-.344-.795-.1-.244.047-.496.202-.68a1.58 1.58 0 01.535-.402c.158-.076.314-.032.43.102.249.29.478.594.664.93.114.206.082.459-.125.6-.05.033-.096.074-.142.112a.469.469 0 00-.108.114.312.312 0 00-.021.274c.255.7.685 1.246 1.39 1.54.113.046.227.101.357.086.218-.026.288-.265.441-.39a.416.416 0 01.5-.021c.161.101.317.21.472.321.152.108.304.214.444.338.135.119.181.274.105.436-.139.295-.341.54-.633.697-.082.044-.18.059-.274.087-.107-.032.093-.028 0 0zM8.003 4.616c1.282.036 2.335.886 2.56 2.154.039.216.052.437.07.656.007.092-.046.18-.145.18-.103.002-.15-.084-.156-.176-.013-.183-.022-.366-.047-.547A2.29 2.29 0 008.44 4.97c-.143-.026-.29-.033-.434-.048-.092-.01-.212-.015-.232-.129-.017-.095.063-.171.154-.176h.075c1.282.036-.025 0 0 0z" fill="#fff"/><path d="M9.95 7.141c-.001.016-.003.054-.012.09-.034.128-.229.144-.274.014a.387.387 0 01-.015-.124c0-.271-.06-.542-.197-.779a1.45 1.45 0 00-.608-.57 1.749 1.749 0 00-.484-.149c-.073-.012-.147-.02-.22-.03-.09-.012-.137-.069-.133-.156.004-.082.064-.141.154-.136.294.016.578.08.84.218.531.282.835.727.924 1.32.004.027.01.054.012.08l.014.222c-.002.016-.005-.088 0 0z" fill="#fff"/><path d="M9.154 7.11c-.107.002-.165-.057-.176-.155a1.558 1.558 0 00-.03-.205.576.576 0 00-.213-.334.555.555 0 00-.173-.083c-.078-.023-.16-.017-.239-.036-.085-.02-.132-.09-.119-.17a.154.154 0 01.163-.124c.497.036.852.293.903.878.003.042.008.085-.001.125a.13.13 0 01-.115.105c-.107.001.049-.004 0 0z" fill="#fff"/></svg>
